img/united-states.svg

<svg width="32" height="32" viewBox="0 0 32 32" fill="none" xmlns="http://www.w3.org/2000/svg">
<g clip-path="url(#clip0)">
<path d="M16 32C24.8366 32 32 24.8366 32 16C32 7.16344 24.8366 0 16 0C7.16344 0 0 7.16344 0 16C0 24.8366 7.16344 32 16 32Z" fill="#F0F0F0"/>
<path d="M15.3047 16.0001H32.0003C32.0003 14.556 31.8078 13.157 31.4491 11.8262H15.3047V16.0001Z" fill="#D80027"/>
<path d="M15.3047 7.65245H29.6519C28.6725 6.0542 27.4202 4.64152 25.9601 3.47852H15.3047V7.65245Z" fill="#D80027"/>
<path d="M15.9998 32.0002C19.7654 32.0002 23.2264 30.6987 25.9595 28.522H6.04004C8.77316 30.6987 12.2342 32.0002 15.9998 32.0002Z" fill="#D80027"/>
<path d="M2.34846 24.3483H29.6517C30.438 23.0652 31.0478 21.6627 31.4489 20.1743H0.55127C0.952332 21.6627 1.56214 23.0652 2.34846 24.3483Z" fill="#D80027"/>
<path d="M7.4115 2.49863H8.86956L7.51331 3.48394L8.03137 5.07825L6.67519 4.09294L5.319 5.07825L5.7665 3.70094C4.57237 4.69562 3.52575 5.861 2.66325 7.1595H3.13044L2.26712 7.78669C2.13262 8.01106 2.00362 8.239 1.88 8.47031L2.29225 9.73913L1.52313 9.18031C1.33194 9.58537 1.15706 9.99956 0.999875 10.4224L1.45406 11.8204H3.13044L1.77419 12.8057L2.29225 14.4L0.936063 13.4147L0.123687 14.0049C0.042375 14.6586 0 15.3243 0 16H16C16 7.1635 16 6.12175 16 0C12.8393 0 9.89281 0.916875 7.4115 2.49863ZM8.03137 14.4L6.67519 13.4147L5.319 14.4L5.83706 12.8057L4.48081 11.8204H6.15719L6.67519 10.2261L7.19319 11.8204H8.86956L7.51331 12.8057L8.03137 14.4ZM7.51331 8.14481L8.03137 9.73913L6.67519 8.75381L5.319 9.73913L5.83706 8.14481L4.48081 7.1595H6.15719L6.67519 5.56519L7.19319 7.1595H8.86956L7.51331 8.14481ZM13.7705 14.4L12.4143 13.4147L11.0581 14.4L11.5762 12.8057L10.2199 11.8204H11.8963L12.4143 10.2261L12.9323 11.8204H14.6087L13.2524 12.8057L13.7705 14.4ZM13.2524 8.14481L13.7705 9.73913L12.4143 8.75381L11.0581 9.73913L11.5762 8.14481L10.2199 7.1595H11.8963L12.4143 5.56519L12.9323 7.1595H14.6087L13.2524 8.14481ZM13.2524 3.48394L13.7705 5.07825L12.4143 4.09294L11.0581 5.07825L11.5762 3.48394L10.2199 2.49863H11.8963L12.4143 0.904312L12.9323 2.49863H14.6087L13.2524 3.48394Z" fill="#0052B4"/>
</g>
<defs>
<clipPath id="clip0">
<rect width="32" height="32" fill="white"/>
</clipPath>
</defs>
</svg>

<svg width="32" height="32" fill="none" xmlns="http://www.w3.org/2000/svg"><g clip-path="url(#a)"><path d="M16 32c8.837 0 16-7.163 16-16S24.837 0 16 0 0 7.163 0 16s7.163 16 16 16z" fill="#F0F0F0"/><path d="M15.305 16H32c0-1.444-.192-2.843-.55-4.174H15.304V16zM15.305 7.652h14.347A16.084 16.084 0 0 0 25.96 3.48H15.305v4.173zM16 32c3.765 0 7.226-1.301 9.96-3.478H6.04A15.932 15.932 0 0 0 16 32zM2.348 24.348h27.304a15.907 15.907 0 0 0 1.797-4.174H.55a15.905 15.905 0 0 0 1.797 4.174z" fill="#D80027"/><path d="M7.412 2.499H8.87l-1.357.985.518 1.594-1.356-.985-1.356.985.447-1.377A16.088 16.088 0 0 0 2.663 7.16h.467l-.863.627c-.134.224-.263.452-.387.683l.412 1.27-.769-.56c-.191.405-.366.82-.523 1.242l.454 1.398H3.13l-1.356.986.518 1.594-1.356-.985-.812.59C.042 14.659 0 15.325 0 16h16V0c-3.16 0-6.107.917-8.588 2.499zm.62 11.901-1.357-.985-1.356.985.518-1.594-1.356-.986h1.676l.518-1.594.518 1.594H8.87l-1.357.986.518 1.594zm-.519-6.255.518 1.594-1.356-.985-1.356.985.518-1.594-1.356-.985h1.676l.518-1.595.518 1.595H8.87l-1.357.985zm6.258 6.255-1.357-.985-1.356.985.518-1.594-1.356-.986h1.676l.518-1.594.518 1.594h1.677l-1.357.986.518 1.594zm-.519-6.255.518 1.594-1.356-.985-1.356.985.518-1.594-1.356-.985h1.676l.518-1.595.518 1.595h1.677l-1.357.985zm0-4.661.518 1.594-1.356-.985-1.356.985.518-1.594-1.356-.985h1.676l.518-1.595.518 1.595h1.677l-1.357.985z" fill="#0052B4"/></g><defs><clipPath id="a"><path fill="#fff" d="M0 0h32v32H0z"/></clipPath></defs></svg>
